ScreenShot/images/cursor.svg

<svg width="18" height="27" fill="none" xmlns="http://www.w3.org/2000/svg"><path d="M0 .594v25.562l1.656-1.375 4.031-3.375 2.032 4.032.437.906.907-.469 3.093-1.594.875-.437-.437-.907-1.844-3.625 5.063-.625 2.03-.25L16.407 17 1.72 2.281 0 .594zm2 4.844l11.563 11.53-4.5.532-1.407.188.657 1.28 2.062 4-1.313.688-2.156-4.312-.594-1.125-.968.812L2 21.844V5.438z" fill="#000"/></svg>

<svg width="18" height="27" viewBox="0 0 18 27" fill="none" xmlns="http://www.w3.org/2000/svg">
<path d="M0 0.593994V26.156L1.656 24.781L5.687 21.406L7.719 25.438L8.156 26.344L9.063 25.875L12.156 24.281L13.031 23.844L12.594 22.937L10.75 19.312L15.813 18.687L17.843 18.437L16.407 17L1.72 2.28099L0 0.593994ZM2 5.43799L13.563 16.968L9.063 17.5L7.656 17.688L8.313 18.968L10.375 22.968L9.062 23.656L6.906 19.344L6.312 18.219L5.344 19.031L2 21.844V5.43799Z" fill="black"/>
</svg>
